X: 42750
T: White House, The
R: mazurka
M: 3/4
K: Amajor
AE|:CEA2zB|GBe2zf|gededB|cdBcAE|
CEA2AB|GBe2zf|gededB|1 A3BAE:|2 A3aga||
|:b2gedB|GBe3c|(3ddd dBde|dBB2ga|
b2gedB|GBe3c|d2dBGB|1 A3aga:|2 A4||

